X:1
T: Lady Charlotte Bruce's Favourite
C:Nathaniel Gow
R:Jig
Q:180
K:F
M:6/8
L:1/16
B2|A4c2 A2c2A2|B4d2G4B2|A4B2 c2A2F2|E4F2G4B2|A4c2 A2c2A2|B4d2 G2A2B2|c2A2F2 B2G2E2|F6F4B2|
A4c2 A2c2A2|B4d2G4B2|A4B2 c2A2F2|E4F2G4B2|A4c2 A2c2A2|B4d2 G2A2B2|c2A2F2 B2G2E2|F6F4f2|
e2g2e2 f4c2|d4e2f4a2|g2f2g2a4f2|e4f2g4a2|e2g2e2 f4c2|d4B2 A2c2f2|c2A2F2 B2G2E2|F6F4f2|
e2g2e2 f4c2|d4e2f4a2|g2f2g2a4f2|e4f2 g2a2b2|a2f2c2 d2e2f2|c2B2A2 B2c2d2|c2A2F2 B2G2E2|F6F4||
